X: 231803
T: White Leaf
T: Duilleog Bh\'an
S: B.Breathnach:"Ceol Rince na hEireann" IV/191 
Z: B.Black
L: 1/8
M: 4/4
R: reel
K: G
ge|dG (3GGG dGeG|dG (3GGG edBd|eA (3AAA eAgA|eA (3AAA efge|
dG (3GGG dGeG|dG (3GGG edcB|ABcd efge|dcBA G2 :|
Bd|g2 dB GBdB|g2 dB GBdB|a2 eg edeg|a2 eg edef|
g2 dB GBdB|g2 dB GBdB|ABcd efge|dcBA G2 :|
